X: 40892
T: Trig
R: jig
M: 6/8
K: Fmajor
FF/F/F FGA|GFE FGA|BB/B/B BAG|AA/A/A A2 G|
FF/F/F FGA|GFE FGA|B2 C CDE|F3 CDE|
FF/F/F FGA|GFE FGA|Bc/B/B Bcd|cBA BAG|
FF/F/F FGA|GFE FGA|B2 C CDE|FF/F/F FGA||
|:BB/B/B DD/D/D|AA/A/A CC/C/C|GAG GAG|CC/C/C C z A|
BB/B/B dcB|AA/A/A cBA|GAG CDE|1 FF/F/F FGA:|2 F3 F3|

